X:1
T:Give Ear to a Frolicksome Ditty
M:6/4
L:1/4
K:Bb
 F| B c B B A G| A G F B A B| c B c| d2d/2-e/2| f g f f d B| c A F G A B|\
 c A F B2 F| B c B B A G| A G F| B A B| c B c d2d/2-e/2| f g f f d B|\
 c A F G A B| c A F B2||
